assets/sms-white.svg

<svg width="16" height="16" viewBox="0 0 16 16" fill="none" xmlns="http://www.w3.org/2000/svg">
<g clip-path="url(#clip0_389_7558)">
<path d="M8.14601 8.73325L7.48602 9.39325C7.35157 9.5277 7.28435 9.69881 7.28435 9.90659C7.28435 10.1144 7.35157 10.2855 7.48602 10.4199C7.62046 10.5544 7.79157 10.6216 7.99935 10.6216C8.20713 10.6216 8.37824 10.5544 8.51268 10.4199L10.4193 8.51325C10.566 8.36659 10.6393 8.19547 10.6393 7.99992C10.6393 7.80436 10.566 7.63325 10.4193 7.48659L8.51268 5.57992C8.37824 5.44548 8.20713 5.37825 7.99935 5.37825C7.79157 5.37825 7.62046 5.44548 7.48601 5.57992C7.35157 5.71436 7.28435 5.88547 7.28435 6.09325C7.28435 6.30103 7.35157 6.47214 7.48601 6.60659L8.14601 7.26659L5.79935 7.26659C5.59157 7.26659 5.41728 7.33699 5.27648 7.47779C5.13568 7.61859 5.06553 7.79263 5.06601 7.99992C5.06601 8.2077 5.13642 8.38199 5.27722 8.52279C5.41802 8.66359 5.59206 8.73374 5.79935 8.73325L8.14601 8.73325ZM15.3327 7.99992C15.3327 9.01436 15.1401 9.9677 14.7548 10.8599C14.3696 11.7521 13.8472 12.5283 13.1877 13.1883C12.5277 13.8483 11.7516 14.3706 10.8593 14.7554C9.96713 15.1401 9.01379 15.3328 7.99935 15.3333C6.9849 15.3333 6.03157 15.1406 5.13935 14.7554C4.24713 14.3701 3.47102 13.8478 2.81102 13.1883C2.15102 12.5283 1.62864 11.7521 1.24388 10.8599C0.859127 9.9677 0.666504 9.01436 0.666015 7.99992C0.666015 6.98548 0.858637 6.03214 1.24388 5.13992C1.62913 4.2477 2.1515 3.47159 2.81102 2.81159C3.47102 2.15159 4.24713 1.62897 5.13935 1.24372C6.03157 0.858476 6.9849 0.666098 7.99935 0.666588C9.01379 0.666587 9.96713 0.85921 10.8593 1.24445C11.7516 1.6297 12.5277 2.15208 13.1877 2.81159C13.8477 3.47159 14.3703 4.2477 14.7555 5.13992C15.1408 6.03214 15.3332 6.98547 15.3327 7.99992Z" fill="white"/>
</g>
<defs>
<clipPath id="clip0_389_7558">
<rect width="16" height="16" fill="white" transform="translate(0 16) rotate(-90)"/>
</clipPath>
</defs>
</svg>

<svg width="16" height="16" fill="none" xmlns="http://www.w3.org/2000/svg"><g clip-path="url(#a)"><path d="m8.146 8.733-.66.66a.695.695 0 0 0-.202.514c0 .207.068.379.202.513a.695.695 0 0 0 .513.202.695.695 0 0 0 .514-.202l1.906-1.907A.703.703 0 0 0 10.64 8a.703.703 0 0 0-.22-.513L8.513 5.58a.695.695 0 0 0-.514-.202.695.695 0 0 0-.513.202.695.695 0 0 0-.202.513c0 .208.068.38.202.514l.66.66H5.799a.71.71 0 0 0-.523.21.707.707 0 0 0-.21.523c0 .208.07.382.211.523.141.14.315.21.522.21h2.347ZM15.333 8a7.136 7.136 0 0 1-.578 2.86 7.417 7.417 0 0 1-1.567 2.328 7.4 7.4 0 0 1-2.329 1.567 7.154 7.154 0 0 1-2.86.578 7.138 7.138 0 0 1-2.86-.578 7.418 7.418 0 0 1-2.328-1.567 7.401 7.401 0 0 1-1.567-2.328A7.154 7.154 0 0 1 .666 8c0-1.015.193-1.968.578-2.86A7.417 7.417 0 0 1 2.81 2.812a7.41 7.41 0 0 1 2.328-1.568A7.128 7.128 0 0 1 8 .667c1.015 0 1.968.192 2.86.577a7.417 7.417 0 0 1 2.329 1.568 7.41 7.41 0 0 1 1.567 2.328c.386.892.578 1.845.578 2.86Z" fill="#fff"/></g><defs><clipPath id="a"><path fill="#fff" transform="rotate(-90 8 8)" d="M0 0h16v16H0z"/></clipPath></defs></svg>
